svgs/light/recycle.svg

<svg xmlns="http://www.w3.org/2000/svg" viewBox="0 0 512 512"><!--! Font Awesome Pro 6.3.0 by @fontawesome - https://fontawesome.com License - https://fontawesome.com/license (Commercial License) Copyright 2023 Fonticons, Inc. --><path d="M160 416L80.37 416c-17.81 0-33.59-9.156-42.21-24.5c-8.406-14.94-8.109-32.63 .7969-47.28L108.6 229.6l14.02 48.41c2.031 7 8.422 11.56 15.37 11.56c1.469 0 2.969-.1875 4.453-.625c8.482-2.469 13.37-11.34 10.92-19.81l-25.17-86.94C127 178.1 124.3 174.6 120.6 172.6C116.8 170.5 112.4 170 108.4 171.2L21.46 196.4C12.97 198.9 8.084 207.8 10.54 216.2c2.453 8.5 11.33 13.5 19.82 10.94L81.67 212.3l-70.05 115.3c-14.1 24.69-15.5 54.44-1.344 79.59C24.64 432.8 50.84 448 80.37 448h79.64c8.844 0 15.1-7.156 15.1-16S168.8 416 160 416zM500.4 327.6l-38.74-63.78c-4.592-7.5-14.4-9.906-21.98-5.375c-7.547 4.594-9.951 14.44-5.359 22l38.74 63.78c8.906 14.66 9.203 32.34 .7969 47.28C465.2 406.8 449.4 416 431.6 416h-121l36.68-36.69c6.25-6.25 6.25-16.38 0-22.62s-16.37-6.25-22.62 0l-63.99 64c-6.25 6.25-6.25 16.38 0 22.62l63.99 64C327.8 510.4 331.9 512 335.1 512s8.186-1.562 11.31-4.688c6.25-6.25 6.25-16.38 0-22.62L310.6 448h121c29.53 0 55.72-15.25 70.1-40.81C515.9 382 515.4 352.3 500.4 327.6zM297.4 55.13l50.37 82.91l-45.47-13.19c-8.498-2.5-17.37 2.469-19.82 10.94s2.438 17.34 10.92 19.81l86.92 25.19c1.469 .4062 2.953 .625 4.453 .625c2.672 0 5.328-.6562 7.719-2c3.717-2.031 6.467-5.469 7.654-9.562l25.17-86.94c2.453-8.469-2.438-17.34-10.92-19.81c-8.531-2.469-17.37 2.438-19.83 10.94l-15.57 53.78L324.8 38.5C310.1 14.38 284.4 0 256 0S201.9 14.38 187.2 38.5L157.4 87.69c-4.594 7.562-2.188 17.41 5.357 22c7.531 4.562 17.4 2.125 21.98-5.375l29.89-49.19C223.4 40.63 238.9 32 256 32S288.6 40.63 297.4 55.13z"/></svg>

<svg xmlns="http://www.w3.org/2000/svg" viewBox="0 0 512 512"><!-- Font Awesome Pro 6.0.0-alpha2 by @fontawesome - https://fontawesome.com License - https://fontawesome.com/license (Commercial License) --><path d="M160.013 416H80.369C62.56 416 46.781 406.844 38.158 391.5C29.752 376.562 30.049 358.875 38.955 344.219L108.613 229.555L122.629 277.969C124.66 284.969 131.05 289.531 138.002 289.531C139.47 289.531 140.97 289.344 142.455 288.906C150.937 286.438 155.828 277.563 153.375 269.094L128.207 182.156C127.019 178.062 124.269 174.625 120.55 172.594C116.818 170.5 112.412 170.031 108.381 171.219L21.457 196.406C12.974 198.875 8.084 207.75 10.537 216.219C12.99 224.719 21.863 229.719 30.361 227.156L81.67 212.277L11.615 327.594C-3.383 352.281 -3.883 382.031 10.271 407.188C24.644 432.75 50.843 448 80.369 448H160.013C168.857 448 176.011 440.844 176.011 432S168.857 416 160.013 416ZM500.384 327.594L461.64 263.812C457.049 256.312 447.236 253.906 439.66 258.437C432.113 263.031 429.709 272.875 434.3 280.437L473.045 344.219C481.951 358.875 482.248 376.562 473.841 391.5C465.218 406.844 449.439 416 431.631 416H310.617L347.299 379.312C353.549 373.062 353.549 362.937 347.299 356.688S330.925 350.438 324.677 356.688L260.687 420.688C254.437 426.938 254.437 437.063 260.687 443.312L324.677 507.312C327.8 510.438 331.894 512 335.988 512S344.174 510.438 347.299 507.312C353.549 501.062 353.549 490.937 347.299 484.688L310.617 448H431.631C461.156 448 487.355 432.75 501.728 407.188C515.883 382.031 515.383 352.281 500.384 327.594ZM297.416 55.125L347.787 138.031L302.32 124.844C293.822 122.344 284.949 127.312 282.496 135.781S284.933 153.125 293.416 155.594L380.34 180.781C381.808 181.187 383.293 181.406 384.793 181.406C387.465 181.406 390.121 180.75 392.511 179.406C396.228 177.375 398.978 173.937 400.166 169.844L425.334 82.906C427.787 74.437 422.896 65.562 414.414 63.094C405.883 60.625 397.041 65.531 394.588 74.031L379.021 127.812L324.756 38.5C310.117 14.375 284.418 0 256 0S201.883 14.375 187.244 38.5L157.359 87.688C152.765 95.25 155.172 105.094 162.716 109.688C170.248 114.25 180.121 111.812 184.697 104.312L214.584 55.125C223.381 40.625 238.861 32 256 32S288.619 40.625 297.416 55.125Z"/></svg>
